X:1
T:Partition sans titre
C:Compositeur / Arrangeur
L:1/8
M:4/4
I:linebreak $
K:D
V:1 treble nm="Violon" snm="Vln."
V:1
"D" d2 f2"G" b3 f |"D" a3 a"G" gagf | g2 A2"A" c2 e2 |"D" a2 ^ga"G" b2 a2 |"D" fgfe f2 A2 | %5
"D" d2 f2"G" b3 f |"D" a3 a"G" gagf | g2 fg"D" abaf |"G" g2 e2"D" d3 A ::"D" (de)fg afdA | %10
 Defg afdA | f2 gf"A" e3 f |"G" gfed"A" cdef |"G" gfed"A" cdef |1 a2 ^ga b2 a2 |"D" f4 A2 A2 :|2 %16
 a2 ^ga b2 c2 |"D" d4 A2 A2 |] %18
